Simply-Blue-Circles/scalable/apps/swell-foop.svg

<svg xmlns="http://www.w3.org/2000/svg" width="48" height="48" viewBox="0 0 12.7 12.7"><path d="M6.34.07a6.29 6.29 0 0 0-6.29 6.3 6.29 6.29 0 0 0 6.3 6.28 6.29 6.29 0 0 0 6.28-6.29A6.29 6.29 0 0 0 6.34.07zm-.01.94a5.4 5.4 0 0 1 5.4 5.4 5.4 5.4 0 0 1-5.4 5.41 5.4 5.4 0 0 1-5.41-5.4A5.4 5.4 0 0 1 6.32 1zM4.45 2.75c-.8 0-1.46.65-1.46 1.44 0 .8.65 1.45 1.46 1.45.8 0 1.46-.65 1.46-1.45 0-.8-.66-1.44-1.46-1.44zm3.8.02c-.8 0-1.46.65-1.46 1.44 0 .8.66 1.45 1.46 1.45.8 0 1.46-.65 1.46-1.45 0-.8-.66-1.44-1.46-1.44zm-.01 4.36c-.8 0-1.46.65-1.46 1.45 0 .8.66 1.44 1.46 1.44.8 0 1.46-.65 1.46-1.44 0-.8-.66-1.45-1.46-1.45z" fill="#2c89a0"/><path style="font-variant-ligatures:normal;font-variant-position:normal;font-variant-caps:normal;font-variant-numeric:normal;font-variant-alternates:normal;font-feature-settings:normal;text-indent:0;text-decoration-line:none;text-decoration-style:solid;text-decoration-color:#000;text-transform:none;text-orientation:mixed;shape-padding:0;isolation:auto;mix-blend-mode:normal" d="M3.4 7.12c-.2 0-.36.16-.36.35v2.19c0 .19.16.35.36.35h2.2c.2 0 .36-.16.36-.35v-2.2c0-.18-.16-.34-.36-.34z" color="#000" white-space="normal" opacity=".75" fill="green"/></svg>

<?xml version="1.0" encoding="UTF-8" standalone="no"?>
<svg
   xmlns:dc="http://purl.org/dc/elements/1.1/"
   xmlns:cc="http://creativecommons.org/ns#"
   xmlns:rdf="http://www.w3.org/1999/02/22-rdf-syntax-ns#"
   xmlns:svg="http://www.w3.org/2000/svg"
   xmlns="http://www.w3.org/2000/svg"
   xmlns:sodipodi="http://sodipodi.sourceforge.net/DTD/sodipodi-0.dtd"
   xmlns:inkscape="http://www.inkscape.org/namespaces/inkscape"
   width="48"
   height="48"
   viewBox="0 0 12.7 12.7"
   version="1.1"
   id="svg6"
   sodipodi:docname="swell-foop.svg"
   inkscape:version="0.92.4 (5da689c313, 2019-01-14)">
  <metadata
     id="metadata12">
    <rdf:RDF>
      <cc:Work
         rdf:about="">
        <dc:format>image/svg+xml</dc:format>
        <dc:type
           rdf:resource="http://purl.org/dc/dcmitype/StillImage" />
        <dc:title></dc:title>
      </cc:Work>
    </rdf:RDF>
  </metadata>
  <defs
     id="defs10" />
  <sodipodi:namedview
     pagecolor="#ffffff"
     bordercolor="#666666"
     borderopacity="1"
     objecttolerance="10"
     gridtolerance="10"
     guidetolerance="10"
     inkscape:pageopacity="0"
     inkscape:pageshadow="2"
     inkscape:window-width="1087"
     inkscape:window-height="480"
     id="namedview8"
     showgrid="false"
     inkscape:zoom="4.9166667"
     inkscape:cx="2.1355932"
     inkscape:cy="24"
     inkscape:window-x="0"
     inkscape:window-y="25"
     inkscape:window-maximized="0"
     inkscape:current-layer="svg6" />
  <path
     d="M 6.34,0.07 A 6.29,6.29 0 0 0 0.05,6.37 6.29,6.29 0 0 0 6.35,12.65 6.29,6.29 0 0 0 12.63,6.36 6.29,6.29 0 0 0 6.34,0.07 Z M 6.33,1.01 a 5.4,5.4 0 0 1 5.4,5.4 5.4,5.4 0 0 1 -5.4,5.41 A 5.4,5.4 0 0 1 0.92,6.42 5.4,5.4 0 0 1 6.32,1 Z M 4.45,2.75 c -0.8,0 -1.46,0.65 -1.46,1.44 0,0.8 0.65,1.45 1.46,1.45 0.8,0 1.46,-0.65 1.46,-1.45 0,-0.8 -0.66,-1.44 -1.46,-1.44 z m 3.8,0.02 c -0.8,0 -1.46,0.65 -1.46,1.44 0,0.8 0.66,1.45 1.46,1.45 0.8,0 1.46,-0.65 1.46,-1.45 0,-0.8 -0.66,-1.44 -1.46,-1.44 z M 8.24,7.13 c -0.8,0 -1.46,0.65 -1.46,1.45 0,0.8 0.66,1.44 1.46,1.44 0.8,0 1.46,-0.65 1.46,-1.44 0,-0.8 -0.66,-1.45 -1.46,-1.45 z"
     id="path2"
     inkscape:connector-curvature="0"
     style="fill:#2c89a0" />
  <path
     style="color:#000000;font-variant-ligatures:normal;font-variant-position:normal;font-variant-caps:normal;font-variant-numeric:normal;font-variant-alternates:normal;font-feature-settings:normal;text-indent:0;text-decoration:none;text-decoration-line:none;text-decoration-style:solid;text-decoration-color:#000000;text-transform:none;text-orientation:mixed;white-space:normal;shape-padding:0;opacity:0.75;isolation:auto;mix-blend-mode:normal;fill:#008000"
     d="m 3.4,7.12 c -0.2,0 -0.36,0.16 -0.36,0.35 v 2.19 c 0,0.19 0.16,0.35 0.36,0.35 h 2.2 c 0.2,0 0.36,-0.16 0.36,-0.35 V 7.46 C 5.96,7.28 5.8,7.12 5.6,7.12 Z"
     id="path4"
     inkscape:connector-curvature="0" />
</svg>
